; generated by PrusaSlicer 2.5.0+win64 on 2023-03-10 at 16:31:26 UTC


;
;
; 

; external perimeters extrusion width = 0.68mm
; perimeters extrusion width = 0.68mm
; infill extrusion width = 0.68mm
; solid infill extrusion width = 0.68mm
; top infill extrusion width = 0.60mm
; first layer extrusion width = 0.65mm

; external perimeters extrusion width = 0.68mm
; perimeters extrusion width = 0.68mm
; infill extrusion width = 0.68mm
; solid infill extrusion width = 0.68mm
; top infill extrusion width = 0.60mm
; first layer extrusion width = 0.65mm

M73 P0 R151
M73 Q0 S153
M201 X1000 Y1000 Z200 E5000 ; sets maximum accelerations, mm/sec^2
M203 X200 Y200 Z12 E120 ; sets maximum feedrates, mm / sec
M204 P1250 R1250 T1250 ; sets acceleration (P, T) and retract acceleration (R), mm/sec^2
M205 X8.00 Y8.00 Z0.40 E4.50 ; sets the jerk limits, mm/sec
M205 S0 T0 ; sets the minimum extruding and travel feed rate, mm/sec
M107
;TYPE:Custom
M862.3 P "MK3S" ; printer model check
M862.1 P0.6 ; nozzle diameter check
M115 U3.12.1 ; tell printer latest fw version
G90 ; use absolute coordinates
M83 ; extruder relative mode
M104 S240 ; set extruder temp
M140 S85 ; set bed temp
M190 S85 ; wait for bed temp
M109 S240 ; wait for extruder temp
G28 W ; home all without mesh bed level
G80 ; mesh bed leveling

G1 Z0.2 F720
G1 Y-3 F1000 ; go outside print area
G92 E0
G1 X60 E9 F1000 ; intro line
G1 X100 E12.5 F1000 ; intro line

G92 E0
M221 S95
G21 ; set units to millimeters
G90 ; use absolute coordinates
M83 ; use relative distances for extrusion
M900 K0.04 ; Filament gcode LA 1.5
M900 K24 ; Filament gcode LA 1.0
M107
;LAYER_CHANGE
;Z:0.2
;HEIGHT:0.2
;BEFORE_LAYER_CHANGE
G92 E0.0
;0.2


G1 E-1 F2100
G1 Z.2 F720
;AFTER_LAYER_CHANGE
;0.2
G1 Z.4
G1 X37.771 Y39.272 F10800
G1 Z.2 F720
G1 E1 F1500
M204 S800
;TYPE:Skirt/Brim
;WIDTH:0.65
G1 F1200
G1 X38.609 Y38.545 E.05601
G1 X40.387 Y37.218 E.11198
G1 X41.433 Y36.556 E.06247
G1 X43.277 Y35.571 E.10554
G1 X44.42 Y35.065 E.06309
G1 X46.499 Y34.328 E.11137
G1 X48.527 Y33.82 E.10553
G1 X49.746 Y33.608 E.06247
G1 X51.955 Y33.397 E.11199
G1 X197.064 Y33.373 E7.32495
G1 X199.279 Y33.488 E.11199
M73 P0 R150
G1 X201.459 Y33.817 E.11129
G1 X203.501 Y34.328 E.10623
G1 X205.592 Y35.069 E.11199
G1 X207.559 Y35.991 E.10966
G1 X208.677 Y36.622 E.06479
G1 X210.518 Y37.86 E.11199
G1 X212.218 Y39.263 E.11129
G1 X213.706 Y40.749 E.10615
G1 X215.119 Y42.461 E.11207
G1 X215.832 Y43.473 E.06247
G1 X216.967 Y45.379 E.11199
G1 X217.904 Y47.375 E.11129
G1 X218.647 Y49.465 E.11199
G1 X219.157 Y51.494 E.10561
G1 X219.491 Y53.698 E.11252
G1 X219.607 Y55.979 E.11529
G1 X219.607 Y81.996 E1.31329
G1 X219.117 Y155.171 E3.69391
G1 X218.898 Y157.334 E.10971
G1 X218.468 Y159.464 E.10971
G1 X217.831 Y161.542 E.10971
G1 X216.598 Y164.333 E.15401
G1 X215.45 Y166.272 E.11374
G1 X214.16 Y168.021 E.10971
G1 X212.706 Y169.636 E.10971
G1 X211.099 Y171.1 E.10971
G1 X210.076 Y171.894 E.06536
G1 X208.331 Y173.05 E.10567
G1 X206.527 Y174.014 E.10326
G1 X204.596 Y174.823 E.10567
G1 X203.368 Y175.233 E.06537
G1 X201.383 Y175.73 E.10326
G1 X199.234 Y176.055 E.10971
G1 X198.023 Y176.144 E.06133
G1 X52.936 Y176.168 E7.32382
G1 X50.766 Y176.055 E.10971
G1 X47.759 Y175.537 E.154
G1 X45.599 Y174.895 E.11374
G1 X43.589 Y174.069 E.10971
G1 X41.669 Y173.05 E.10971
G1 X39.756 Y171.771 E.11616
G1 X38.022 Y170.333 E.11374
G1 X35.921 Y168.12 E.15401
G1 X35.127 Y167.097 E.06537
G1 X33.971 Y165.352 E.10567
G1 X33.007 Y163.548 E.10326
G1 X32.514 Y162.437 E.06133
G1 X31.825 Y160.511 E.10326
G1 X31.309 Y158.482 E.10567
G1 X31.083 Y157.207 E.06536
G1 X30.883 Y155.171 E.10326
G1 X30.393 Y81.996 E3.69391
G1 X30.394 Y55.915 E1.31652
G1 X30.509 Y53.7 E.11199
G1 X30.841 Y51.506 E.11199
G1 X31.386 Y49.356 E.11199
G1 X32.09 Y47.387 E.10553
G1 X32.537 Y46.372 E.05601
G1 X33.577 Y44.412 E.11199
G1 X34.881 Y42.461 E.11843
G1 X36.293 Y40.75 E.11199
G1 X37.707 Y39.336 E.10099
M204 S1000
; printing object spillkonsoll_case.stl_1 id:0 copy 0
;WIPE_START
G1 F8640
G1 X38.609 Y38.545 E-.27694
G1 X40.387 Y37.218 E-.51225
G1 X40.976 Y36.846 E-.16081
;WIPE_END
G1 E-.05 F2100
G1 Z.4 F720
G1 X53.014 Y171.511 F10800
G1 Z.2 F720
M73 Q0 S152
G1 E1 F1500
M204 S800
;TYPE:Perimeter
;WIDTH:0.649999
G1 F1200
G1 X52.142 Y171.49 E.04404
G1 X51.286 Y171.427 E.04333
G1 X50.434 Y171.322 E.04333
G1 X49.588 Y171.175 E.04334
G1 X48.75 Y170.987 E.04333
G1 X47.923 Y170.758 E.04333
G1 X47.108 Y170.489 E.04334
G1 X46.307 Y170.18 E.04333
G1 X45.522 Y169.832 E.04333
G1 X44.755 Y169.446 E.04334
G1 X44.008 Y169.023 E.04333
G1 X43.283 Y168.563 E.04334
G1 X42.581 Y168.069 E.04333
G1 X41.904 Y167.541 E.04334
G1 X41.254 Y166.98 E.04333
G1 X40.633 Y166.388 E.04334
G1 X40.041 Y165.766 E.04333
G1 X39.48 Y165.116 E.04333
G1 X38.952 Y164.44 E.04334
G1 X38.457 Y163.738 E.04333
G1 X37.998 Y163.013 E.04334
G1 X37.575 Y162.266 E.04333
G1 X37.189 Y161.499 E.04333
G1 X36.841 Y160.714 E.04333
G1 X36.532 Y159.913 E.04333
G1 X36.263 Y159.098 E.04334
G1 X36.034 Y158.271 E.04333
G1 X35.846 Y157.433 E.04333
G1 X35.699 Y156.587 E.04334
G1 X35.594 Y155.735 E.04333
G1 X35.531 Y154.879 E.04333
G1 X35.51 Y154.007 E.04404
G1 X35.509 Y128.035 E1.31105
G1 X35.531 Y127.163 E.04404
G1 X35.594 Y126.307 E.04333
G1 X35.699 Y125.455 E.04333
G1 X35.846 Y124.609 E.04334
G1 X36.034 Y123.771 E.04333
G1 X36.263 Y122.944 E.04334
G1 X36.532 Y122.129 E.04334
G1 X36.841 Y121.328 E.04333
G1 X37.189 Y120.543 E.04333
G1 X37.575 Y119.776 E.04333
G1 X37.998 Y119.029 E.04333
G1 X38.457 Y118.304 E.04334
G1 X38.952 Y117.602 E.04333
G1 X39.48 Y116.925 E.04334
G1 X40.041 Y116.275 E.04333
G1 X40.633 Y115.653 E.04334
G1 X41.254 Y115.061 E.04334
G1 X41.904 Y114.501 E.04333
G1 X42.581 Y113.973 E.04334
G1 X43.283 Y113.478 E.04333
G1 X44.008 Y113.019 E.04334
G1 X44.755 Y112.596 E.04333
G1 X45.522 Y112.21 E.04333
G1 X46.307 Y111.862 E.04333
G1 X47.108 Y111.553 E.04333
G1 X47.923 Y111.284 E.04334
G1 X48.75 Y111.055 E.04333
G1 X49.588 Y110.867 E.04333
G1 X50.434 Y110.72 E.04334
G1 X51.286 Y110.615 E.04333
G1 X52.142 Y110.552 E.04333
G1 X53.014 Y110.53 E.04403
G1 X197.469 Y110.543 E7.29192
G1 X198.721 Y110.616 E.06333
G1 X199.566 Y110.72 E.04299
G1 X200.412 Y110.867 E.04333
G1 X201.25 Y111.055 E.04333
G1 X202.077 Y111.284 E.04333
G1 X202.892 Y111.553 E.04334
G1 X203.693 Y111.862 E.04333
G1 X204.478 Y112.21 E.04333
G1 X205.245 Y112.596 E.04333
G1 X205.992 Y113.019 E.04333
G1 X206.717 Y113.478 E.04334
G1 X207.419 Y113.973 E.04333
G1 X208.096 Y114.501 E.04334
G1 X208.746 Y115.061 E.04333
G1 X209.367 Y115.653 E.04333
G1 X209.959 Y116.275 E.04334
G1 X210.52 Y116.925 E.04333
G1 X211.048 Y117.602 E.04334
G1 X211.543 Y118.304 E.04333
G1 X212.002 Y119.029 E.04334
G1 X212.425 Y119.776 E.04333
G1 X212.811 Y120.543 E.04333
G1 X213.159 Y121.328 E.04333
G1 X213.468 Y122.129 E.04333
G1 X213.737 Y122.944 E.04334
G1 X213.966 Y123.771 E.04334
G1 X214.154 Y124.609 E.04333
G1 X214.301 Y125.455 E.04334
G1 X214.434 Y126.693 E.06288
G1 X214.491 Y128.092 E.07066
G1 X214.49 Y154.007 E1.30818
G1 X214.469 Y154.879 E.04404
G1 X214.406 Y155.735 E.04333
G1 X214.301 Y156.587 E.04333
G1 X214.154 Y157.433 E.04334
G1 X213.966 Y158.271 E.04333
G1 X213.737 Y159.098 E.04333
G1 X213.468 Y159.913 E.04334
G1 X213.159 Y160.714 E.04333
G1 X212.811 Y161.499 E.04333
G1 X212.425 Y162.266 E.04333
G1 X212.002 Y163.013 E.04333
G1 X211.543 Y163.738 E.04334
G1 X211.048 Y164.44 E.04333
G1 X210.52 Y165.116 E.04334
G1 X209.959 Y165.766 E.04333
G1 X209.367 Y166.388 E.04333
G1 X208.746 Y166.98 E.04334
G1 X208.096 Y167.541 E.04333
G1 X207.419 Y168.069 E.04334
G1 X206.717 Y168.563 E.04333
G1 X205.992 Y169.023 E.04334
G1 X205.245 Y169.446 E.04333
G1 X204.478 Y169.832 E.04334
G1 X203.693 Y170.18 E.04333
G1 X202.892 Y170.489 E.04333
G1 X202.077 Y170.758 E.04334
G1 X201.25 Y170.987 E.04333
G1 X200.412 Y171.175 E.04333
G1 X199.566 Y171.322 E.04333
G1 X198.714 Y171.427 E.04334
G1 X197.858 Y171.49 E.04333
G1 X196.986 Y171.511 E.04404
G1 X53.104 Y171.511 E7.263
M204 S1000
G1 X53.006 Y172.118 F10800
M204 S800
;TYPE:External perimeter
G1 F1200
G1 X52.112 Y172.096 E.04516
G1 X51.226 Y172.031 E.04484
G1 X50.345 Y171.922 E.04484
G1 X49.469 Y171.771 E.04484
G1 X48.603 Y171.576 E.04484
G1 X47.747 Y171.339 E.04484
G1 X46.903 Y171.06 E.04484
G1 X46.074 Y170.741 E.04484
G1 X45.262 Y170.381 E.04484
G1 X44.469 Y169.981 E.04484
G1 X43.696 Y169.544 E.04484
G1 X42.946 Y169.068 E.04484
G1 X42.219 Y168.557 E.04484
G1 X41.519 Y168.01 E.04484
G1 X40.847 Y167.43 E.04483
G1 X40.203 Y166.818 E.04484
G1 X39.591 Y166.174 E.04484
G1 X39.011 Y165.502 E.04484
G1 X38.464 Y164.801 E.04484
G1 X37.953 Y164.075 E.04484
G1 X37.477 Y163.325 E.04484
G1 X37.04 Y162.552 E.04484
G1 X36.64 Y161.758 E.04484
G1 X36.28 Y160.946 E.04484
G1 X35.961 Y160.118 E.04484
G1 X35.682 Y159.274 E.04484
G1 X35.445 Y158.418 E.04484
G1 X35.25 Y157.552 E.04484
G1 X35.098 Y156.676 E.04484
G1 X34.99 Y155.795 E.04484
G1 X34.924 Y154.909 E.04484
G1 X34.902 Y154.014 E.04516
G1 X34.902 Y128.027 E1.3118
G1 X34.924 Y127.133 E.04516
G1 X34.99 Y126.247 E.04484
G1 X35.098 Y125.365 E.04484
G1 X35.25 Y124.49 E.04484
G1 X35.445 Y123.624 E.04484
G1 X35.682 Y122.767 E.04484
G1 X35.96 Y121.924 E.04484
G1 X36.28 Y121.095 E.04484
G1 X36.64 Y120.283 E.04484
G1 X37.04 Y119.49 E.04484
G1 X37.477 Y118.717 E.04484
G1 X37.953 Y117.966 E.04484
G1 X38.464 Y117.24 E.04484
G1 X39.011 Y116.54 E.04484
G1 X39.591 Y115.867 E.04484
G1 X40.203 Y115.224 E.04484
G1 X40.847 Y114.612 E.04484
G1 X41.519 Y114.031 E.04483
G1 X42.219 Y113.485 E.04484
G1 X42.946 Y112.973 E.04484
G1 X43.696 Y112.498 E.04484
G1 X44.469 Y112.06 E.04484
G1 X45.262 Y111.661 E.04484
G1 X46.074 Y111.301 E.04484
G1 X46.903 Y110.981 E.04484
G1 X47.747 Y110.703 E.04484
G1 X48.603 Y110.466 E.04484
G1 X49.469 Y110.271 E.04484
G1 X50.345 Y110.119 E.04484
G1 X51.226 Y110.011 E.04484
G1 X52.112 Y109.945 E.04484
G1 X53.006 Y109.923 E.04516
G1 X197.487 Y109.935 E7.29319
G1 X198.776 Y110.011 E.06521
G1 X199.655 Y110.119 E.04472
G1 X200.531 Y110.271 E.04484
G1 X201.397 Y110.466 E.04484
G1 X202.253 Y110.703 E.04484
G1 X203.097 Y110.981 E.04484
G1 X203.926 Y111.301 E.04484
G1 X204.738 Y111.661 E.04484
G1 X205.531 Y112.06 E.04484
G1 X206.304 Y112.498 E.04484
G1 X207.054 Y112.973 E.04484
G1 X207.781 Y113.485 E.04484
M73 P0 R149
G1 X208.481 Y114.031 E.04484
G1 X209.153 Y114.612 E.04484
G1 X209.797 Y115.224 E.04484
G1 X210.409 Y115.867 E.04484
G1 X210.989 Y116.54 E.04484
G1 X211.536 Y117.24 E.04484
G1 X212.047 Y117.966 E.04484
G1 X212.523 Y118.717 E.04484
G1 X212.961 Y119.49 E.04484
G1 X213.36 Y120.283 E.04484
G1 X213.72 Y121.095 E.04484
G1 X214.04 Y121.924 E.04484
G1 X214.318 Y122.767 E.04484
G1 X214.555 Y123.624 E.04484
G1 X214.75 Y124.49 E.04484
G1 X214.902 Y125.365 E.04484
G1 X215.04 Y126.648 E.06513
G1 X215.098 Y128.092 E.07292
G1 X215.098 Y154.014 E1.30855
G1 X215.076 Y154.909 E.04516
G1 X215.01 Y155.795 E.04484
G1 X214.902 Y156.676 E.04484
G1 X214.75 Y157.552 E.04484
G1 X214.555 Y158.418 E.04484
G1 X214.318 Y159.274 E.04484
G1 X214.039 Y160.118 E.04484
G1 X213.72 Y160.946 E.04484
G1 X213.36 Y161.758 E.04484
G1 X212.96 Y162.552 E.04484
G1 X212.523 Y163.325 E.04484
G1 X212.047 Y164.075 E.04484
G1 X211.536 Y164.801 E.04484
G1 X210.989 Y165.502 E.04484
G1 X210.409 Y166.174 E.04484
G1 X209.797 Y166.818 E.04484
G1 X209.153 Y167.43 E.04484
G1 X208.481 Y168.01 E.04483
G1 X207.781 Y168.557 E.04484
G1 X207.054 Y169.068 E.04484
G1 X206.304 Y169.544 E.04484
G1 X205.531 Y169.981 E.04484
G1 X204.738 Y170.381 E.04484
G1 X203.926 Y170.741 E.04484
G1 X203.097 Y171.06 E.04484
G1 X202.253 Y171.339 E.04484
G1 X201.397 Y171.576 E.04484
G1 X200.531 Y171.771 E.04484
G1 X199.655 Y171.922 E.04484
G1 X198.774 Y172.031 E.04484
G1 X197.888 Y172.096 E.04484
G1 X196.994 Y172.118 E.04516
G1 X53.096 Y172.118 E7.26376
M204 S1000
G1 X52.715 Y171.594 F10800
;WIPE_START
G1 F8640
G1 X52.112 Y172.096 E-.22737
G1 X51.226 Y172.031 E-.2051
G1 X50.345 Y171.922 E-.2051
G1 X49.469 Y171.771 E-.20511
G1 X49.016 Y171.669 E-.10732
;WIPE_END
G1 E-.05 F2100
G1 Z.4 F720
G1 X194.8 Y134.954 F10800
G1 Z.2 F720
G1 E1 F1500
M204 S800
;TYPE:Perimeter
G1 F1200
G1 X194.46 Y134.512 E.02814
G1 X194.137 Y133.993 E.03086
G1 X193.868 Y133.444 E.03085
G1 X193.655 Y132.871 E.03085
G1 X193.5 Y132.28 E.03085
G1 X193.399 Y131.522 E.03862
G1 X193.374 Y131.016 E.02557
G1 X193.408 Y130.381 E.03209
G1 X193.505 Y129.761 E.03167
G1 X193.664 Y129.158 E.03147
G1 X193.882 Y128.578 E.0313
G1 X194.157 Y128.025 E.03117
G1 X194.484 Y127.504 E.03106
G1 X194.861 Y127.02 E.03096
G1 X195.283 Y126.577 E.03087
G1 X195.746 Y126.18 E.03079
G1 X195.884 Y126.069 E.00894
G1 X196.395 Y125.734 E.03085
G1 X196.937 Y125.451 E.03086
G1 X197.504 Y125.224 E.03085
G1 X198.091 Y125.054 E.03086
G1 X198.693 Y124.943 E.03085
G1 X199.302 Y124.893 E.03085
G1 X199.913 Y124.904 E.03085
G1 X200.52 Y124.975 E.03085
G1 X201.117 Y125.107 E.03085
G1 X201.698 Y125.297 E.03085
G1 X202.257 Y125.544 E.03085
G1 X202.788 Y125.846 E.03085
G1 X203.287 Y126.199 E.03086
G1 X203.748 Y126.6 E.03085
G1 X204.167 Y127.045 E.03085
G1 X204.54 Y127.53 E.03085
G1 X204.863 Y128.049 E.03085
G1 X205.132 Y128.598 E.03086
G1 X205.345 Y129.17 E.03085
G1 X205.5 Y129.762 E.03085
G1 X205.619 Y130.664 E.04597
G1 X205.626 Y131.282 E.03117
G1 X205.569 Y131.89 E.03082
G1 X205.453 Y132.49 E.03085
G1 X205.277 Y133.075 E.03085
G1 X205.044 Y133.64 E.03085
G1 X204.755 Y134.179 E.03085
G1 X204.415 Y134.687 E.03085
G1 X204.025 Y135.158 E.03085
G1 X203.591 Y135.588 E.03085
G1 X203.116 Y135.972 E.03085
G1 X202.605 Y136.308 E.03085
G1 X202.063 Y136.591 E.03085
G1 X201.496 Y136.818 E.03085
G1 X200.909 Y136.988 E.03086
G1 X200.307 Y137.099 E.03085
G1 X199.698 Y137.149 E.03085
G1 X199.087 Y137.138 E.03085
G1 X198.48 Y137.067 E.03085
G1 X197.883 Y136.935 E.03085
G1 X197.302 Y136.745 E.03085
G1 X196.743 Y136.497 E.03085
G1 X196.212 Y136.196 E.03086
G1 X195.713 Y135.843 E.03085
G1 X195.252 Y135.442 E.03085
G1 X194.857 Y135.023 E.02902
M204 S1000
G1 X195.282 Y134.588 F10800
M204 S800
;TYPE:External perimeter
G1 F1200
G1 X194.944 Y134.146 E.0281
G1 X194.655 Y133.676 E.0278
G1 X194.415 Y133.181 E.0278
G1 X194.225 Y132.664 E.0278
G1 X194.088 Y132.13 E.0278
G1 X194.001 Y131.447 E.03475
G1 X193.981 Y130.76 E.0347
G1 X194.035 Y130.212 E.02779
G1 X194.142 Y129.672 E.0278
G1 X194.303 Y129.146 E.0278
G1 X194.516 Y128.637 E.0278
G1 X194.778 Y128.153 E.0278
G1 X195.087 Y127.697 E.0278
G1 X195.44 Y127.274 E.0278
G1 X195.833 Y126.889 E.0278
G1 X196.263 Y126.544 E.0278
G1 X196.725 Y126.244 E.0278
G1 X197.214 Y125.991 E.0278
G1 X197.726 Y125.789 E.0278
G1 X198.256 Y125.638 E.0278
G1 X198.798 Y125.541 E.0278
G1 X199.347 Y125.498 E.0278
G1 X199.898 Y125.51 E.0278
G1 X200.444 Y125.577 E.0278
G1 X200.982 Y125.699 E.0278
G1 X201.504 Y125.873 E.0278
G1 X202.007 Y126.098 E.0278
G1 X202.485 Y126.372 E.0278
G1 X202.933 Y126.692 E.0278
G1 X203.347 Y127.055 E.0278
G1 X203.722 Y127.458 E.0278
G1 X204.056 Y127.896 E.0278
G1 X204.345 Y128.365 E.0278
G1 X204.585 Y128.861 E.0278
G1 X204.775 Y129.378 E.0278
G1 X204.912 Y129.911 E.0278
G1 X205.017 Y130.739 E.04209
G1 X205.019 Y131.281 E.0274
G1 X204.965 Y131.829 E.02779
G1 X204.858 Y132.369 E.0278
G1 X204.697 Y132.896 E.0278
G1 X204.484 Y133.404 E.0278
G1 X204.222 Y133.889 E.0278
G1 X203.913 Y134.345 E.0278
G1 X203.56 Y134.768 E.0278
G1 X203.167 Y135.153 E.0278
G1 X202.737 Y135.498 E.0278
G1 X202.275 Y135.798 E.0278
G1 X201.786 Y136.05 E.0278
G1 X201.274 Y136.253 E.0278
G1 X200.744 Y136.404 E.0278
G1 X200.202 Y136.501 E.0278
G1 X199.653 Y136.543 E.0278
G1 X199.102 Y136.531 E.0278
G1 X198.556 Y136.464 E.0278
G1 X198.018 Y136.343 E.0278
G1 X197.496 Y136.169 E.0278
G1 X196.993 Y135.944 E.0278
G1 X196.515 Y135.67 E.0278
G1 X196.067 Y135.35 E.0278
G1 X195.653 Y134.986 E.0278
G1 X195.343 Y134.654 E.02296
M204 S1000
G1 X194.734 Y134.687 F10800
;WIPE_START
G1 F8640
G1 X194.944 Y134.146 E-.14923
G1 X194.655 Y133.676 E-.12718
G1 X194.415 Y133.181 E-.12717
G1 X194.225 Y132.664 E-.12717
G1 X194.088 Y132.13 E-.12718
G1 X194.001 Y131.447 E-.15897
G1 X193.985 Y130.871 E-.1331
;WIPE_END
G1 E-.05 F2100
G1 Z.4 F720
G1 X183.446 Y120.127 F10800
G1 Z.2 F720
G1 E1 F1500
M204 S800
;TYPE:Perimeter
G1 F1200
